T: Slängpols Från Torp
M: 3/4
L: 1/8
K: Gmaj
B>G B>c d>B | c*e A2 a>g | f>d f>g a>f | g*b d2 d>c | B>G B>c d>B | c*e A2 a>g | f>d f>g a*f | g2 G2 :|g>B d>G g>e | f*a A2 a>g | f>d f>g a>f | g<b B2 b>a | g>B d>G | g>e f*a A2 | a>g f>d f>g | a*f g2 G2 :||: d>c B>G d>B | g>e f*a A2 | a>g f>d a>f | c'>a b>d' g2 |   d>c B>G d>B | g>e f*a A2 | a>g f>d a>f | e*f g2 G2 :||: d'>c' b>g d>G | B>d c*e A2 | A>B c>A F>d | ^c>d G*B D2 |   d'>c' b>g d>G | B>d c*e A2 | A>B c>A F>D | E*F G2 g2 :||: dc BG Bc | dc c*e A2 | ag fd fa | ag g*b (d2 |   d)c Bg Bd | dc c*e A2 | ag fd ef | g2 g3 z :||: ba gB dg | gf f*a (a2 | a)g fd fa | ag g*b (b2 |   b)a gB dG | gf f<a (a2 | a)g fd ef | g2 g3 z :|
